svgs/duotone/circle-6.svg

<svg xmlns="http://www.w3.org/2000/svg" viewBox="0 0 512 512"><!-- Font Awesome Pro 6.0.0-alpha2 by @fontawesome - https://fontawesome.com License - https://fontawesome.com/license (Commercial License) --><defs><style>.fa-secondary{opacity:.4}</style></defs><path d="M256 16C123.451 16 16 123.451 16 256S123.451 496 256 496S496 388.549 496 256S388.549 16 256 16ZM256 384C203.062 384 160 340.938 160 288C160 246.699 187.549 214.711 200.281 203.594L280.219 133.906C284.781 129.938 290.406 128 296 128C302.688 128 309.344 130.781 314.094 136.219C322.812 146.219 321.75 161.375 311.781 170.094L282.021 196.037C322.268 207.467 352 244.141 352 288C352 340.938 308.938 384 256 384ZM256 240C234.938 240 216 254.094 209.969 274.281C208.656 278.688 208 283.281 208 288C208 314.469 229.531 336 256 336S304 314.469 304 288S282.469 240 256 240Z" class="fa-secondary"/><path d="M282.021 196.037L311.781 170.094C321.75 161.375 322.813 146.219 314.094 136.219C309.344 130.781 302.688 128 296 128C290.406 128 284.781 129.938 280.219 133.906L200.281 203.594C187.549 214.711 160 246.699 160 288C160 340.938 203.062 384 256 384S352 340.938 352 288C352 244.141 322.268 207.467 282.021 196.037ZM256 336C229.531 336 208 314.469 208 288C208 283.281 208.656 278.688 209.969 274.281C216 254.094 234.938 240 256 240C282.469 240 304 261.531 304 288S282.469 336 256 336Z" class="fa-primary"/></svg>

<svg xmlns="http://www.w3.org/2000/svg" viewBox="0 0 512 512"><!--! Font Awesome Pro 6.3.0 by @fontawesome - https://fontawesome.com License - https://fontawesome.com/license (Commercial License) Copyright 2023 Fonticons, Inc. --><defs><style>.fa-secondary{opacity:.4}</style></defs><path class="fa-primary" d="M282 196l29.76-25.94c9.969-8.719 11.03-23.88 2.312-33.88C309.3 130.8 302.7 128 296 128c-5.594 0-11.22 1.938-15.78 5.906L200.3 203.6C187.5 214.7 160 246.7 160 288c0 52.94 43.06 96 96 96s96-43.06 96-96C352 244.1 322.3 207.5 282 196zM256 336c-26.47 0-48-21.53-48-48c0-4.719 .6562-9.312 1.969-13.72C216 254.1 234.9 240 256 240c26.47 0 48 21.53 48 48S282.5 336 256 336z"/><path class="fa-secondary" d="M256 240c-21.06 0-40 14.09-46.03 34.28C208.7 278.7 208 283.3 208 288c0 26.47 21.53 48 48 48s48-21.53 48-48S282.5 240 256 240zM256 0C114.6 0 0 114.6 0 256s114.6 256 256 256s256-114.6 256-256S397.4 0 256 0zM256 384c-52.94 0-96-43.06-96-96c0-41.3 27.55-73.29 40.28-84.41l79.94-69.69C284.8 129.9 290.4 128 296 128c6.688 0 13.34 2.781 18.09 8.219c8.719 10 7.656 25.16-2.312 33.88l-29.76 25.94C322.3 207.5 352 244.1 352 288C352 340.9 308.9 384 256 384z"/></svg>
